docs/assets/images/calc-svg/chamfer-02.svg

<svg width="76" height="44" viewBox="0 0 76 44" fill="none" xmlns="http://www.w3.org/2000/svg">
<path d="M1 12.9032L45.6719 1L67.7228 4.16356C69.6415 4.43885 72.1859 5.67916 73.3784 7.20739C74.9067 9.16587 75 10.917 75 13.4012V25.2903L33.727 43L1.58268 34.871L1 12.9032Z" fill="#D2D2D2"/>
<path d="M1 12.9032L45.6719 1L67.7228 4.16356C69.6416 4.43885 72.1859 5.67916 73.3784 7.20739V7.20739C74.9067 9.16587 75 10.917 75 13.4012V25.2903L33.727 43M1 12.9032L1.58268 34.871L33.727 43M1 12.9032L24.0979 17.4419C27.0525 18.0224 30.2019 18.961 31.8416 21.4865V21.4865C33.0506 23.3485 33.2712 25.6462 33.3295 27.8655L33.727 43" stroke="#838383"/>
</svg>

<svg width="76" height="44" fill="none" xmlns="http://www.w3.org/2000/svg"><path d="M1 12.903L45.672 1l22.05 3.164c1.92.275 4.464 1.515 5.656 3.043C74.907 9.166 75 10.917 75 13.401v11.89L33.727 43 1.583 34.871 1 12.903z" fill="#D2D2D2"/><path d="M1 12.903L45.672 1l22.05 3.164c1.92.275 4.464 1.515 5.656 3.043v0C74.907 9.166 75 10.917 75 13.401v11.89L33.727 43M1 12.903l.583 21.968L33.727 43M1 12.903l23.098 4.539c2.954.58 6.104 1.519 7.744 4.044v0c1.209 1.863 1.43 4.16 1.488 6.38L33.727 43" stroke="#838383"/></svg>
